src/img/icons/wheelchair.svg

<svg width="32" height="32" viewBox="0 0 32 32" fill="none" xmlns="http://www.w3.org/2000/svg">
<path d="M11.6269 29.59C9.78953 29.59 8.22566 28.9379 6.93525 27.6338C5.64508 26.3297 5 24.759 5 22.9217C5 21.3283 5.51208 19.9197 6.53624 18.6961C7.56015 17.4725 8.85405 16.7119 10.4179 16.4141C10.7099 16.3459 10.9802 16.3931 11.2289 16.5558C11.4774 16.7182 11.6359 16.9456 11.7044 17.2378C11.7728 17.5297 11.7257 17.7977 11.5631 18.0416C11.4004 18.2857 11.1729 18.4419 10.8807 18.5101C9.80323 18.6952 8.91412 19.2035 8.21341 20.0352C7.51293 20.8671 7.1627 21.8293 7.1627 22.9217C7.1627 24.1602 7.59944 25.2161 8.47293 26.0893C9.34618 26.9628 10.4067 27.3995 11.6546 27.3995C12.7045 27.3995 13.6347 27.0761 14.4452 26.4292C15.2558 25.7821 15.7839 24.9576 16.0298 23.9558C16.1223 23.6639 16.2905 23.4388 16.5344 23.2807C16.7783 23.1226 17.0463 23.0898 17.3385 23.1823C17.6305 23.2748 17.8556 23.4453 18.0137 23.6938C18.1715 23.9425 18.2043 24.2128 18.1121 24.5048C17.7442 25.9985 16.9544 27.2194 15.7428 28.1677C14.5312 29.1159 13.1593 29.59 11.6269 29.59ZM22.135 8.18471C21.4161 8.18471 20.8043 7.93239 20.2996 7.42776C19.795 6.92313 19.5427 6.31133 19.5427 5.59235C19.5427 4.87338 19.795 4.26157 20.2996 3.75694C20.8043 3.25231 21.4161 3 22.135 3C22.8543 3 23.4638 3.25231 23.9636 3.75694C24.4637 4.26157 24.7137 4.87338 24.7137 5.59235C24.7137 6.31133 24.4637 6.92313 23.9636 7.42776C23.4638 7.93239 22.8543 8.18471 22.135 8.18471ZM15.8135 21.5354C14.8023 21.5354 14.0153 21.1009 13.4525 20.232C12.8898 19.3633 12.82 18.4594 13.2431 17.5203L16.0492 11.3318H12.5889L12.0122 12.8403C11.9197 13.0935 11.7445 13.2871 11.4866 13.421C11.2288 13.555 10.9659 13.5758 10.698 13.4833C10.4003 13.391 10.1807 13.2048 10.0394 12.9246C9.89791 12.6447 9.88818 12.3559 10.0102 12.0585L10.5675 10.5529C10.7561 10.0648 11.0505 9.69367 11.4506 9.43943C11.8509 9.18543 12.307 9.05844 12.8189 9.05844H19.3596C20.3208 9.05844 21.0514 9.43222 21.5515 10.1798C22.0515 10.9276 22.0991 11.7571 21.6942 12.6683L18.9134 18.7488H23.7989C24.4902 18.7488 25.079 18.9942 25.5651 19.4852C26.0512 19.9759 26.2943 20.5669 26.2943 21.2582V27.0669C26.2943 27.3737 26.1907 27.6306 25.9836 27.8375C25.7767 28.0446 25.5198 28.1482 25.2129 28.1482C24.9061 28.1482 24.6491 28.0446 24.4419 27.8375C24.235 27.6306 24.1316 27.3737 24.1316 27.0669V21.8403C24.1316 21.7478 24.1061 21.6739 24.0552 21.6187C24.0045 21.5632 23.9283 21.5354 23.8266 21.5354H15.8135Z" fill="#131212"/>
</svg>

<svg xmlns="http://www.w3.org/2000/svg" viewBox="0 0 32 32">
  <path fill="currentColor" d="M11.627 29.59c-1.837 0-3.401-.652-4.692-1.956C5.645 26.33 5 24.759 5 22.922c0-1.594.512-3.002 1.536-4.226a6.506 6.506 0 0 1 3.882-2.282c.292-.068.562-.02.81.142.25.162.408.39.476.682a.986.986 0 0 1-.14.804c-.164.244-.391.4-.683.468a4.345 4.345 0 0 0-2.668 1.525 4.349 4.349 0 0 0-1.05 2.887c0 1.238.436 2.294 1.31 3.167.873.874 1.934 1.31 3.182 1.31 1.05 0 1.98-.323 2.79-.97a4.438 4.438 0 0 0 1.585-2.473c.092-.292.26-.517.504-.675a.907.907 0 0 1 .805-.099c.292.093.517.263.675.512.158.248.19.519.098.81a6.503 6.503 0 0 1-2.37 3.664 6.503 6.503 0 0 1-4.115 1.422ZM22.135 8.185a2.5 2.5 0 0 1-1.835-.757 2.5 2.5 0 0 1-.757-1.836 2.5 2.5 0 0 1 .757-1.835A2.5 2.5 0 0 1 22.135 3c.72 0 1.329.252 1.829.757s.75 1.116.75 1.835c0 .72-.25 1.331-.75 1.836a2.48 2.48 0 0 1-1.829.757Zm-6.322 13.35c-1.01 0-1.798-.434-2.36-1.303-.563-.869-.633-1.773-.21-2.712l2.806-6.188h-3.46l-.577 1.508a1.046 1.046 0 0 1-.525.581.963.963 0 0 1-.789.062 1.063 1.063 0 0 1-.659-.558.998.998 0 0 1-.029-.867l.558-1.505c.188-.488.482-.86.883-1.114a2.5 2.5 0 0 1 1.368-.38h6.54c.962 0 1.692.373 2.192 1.12.5.749.548 1.578.143 2.49l-2.78 6.08h4.885c.691 0 1.28.245 1.766.736.486.49.73 1.082.73 1.773v5.809c0 .307-.104.564-.311.77-.207.208-.464.311-.771.311s-.564-.103-.771-.31a1.046 1.046 0 0 1-.31-.771V21.84a.314.314 0 0 0-.077-.221c-.05-.056-.127-.084-.228-.084h-8.014Z"/>
</svg>
